icons/double-float-16.svg

<?xml version="1.0" encoding="UTF-8"?><svg id="icons" xmlns="http://www.w3.org/2000/svg" viewBox="0 0 16 16"><defs><style>.cls-1{fill:none;}.cls-1,.cls-2{stroke-width:0px;}</style></defs><path class="cls-2" d="M10,5h-2c-.55127,0-1,.44824-1,1v5c0,.55176.44873,1,1,1h2c.55127,0,1-.44824,1-1v-5c0-.55176-.44873-1-1-1ZM10,11h-2v-5h2v5ZM3,5H1c-.55127,0-1,.44824-1,1v5c0,.55176.44873,1,1,1h2c.55127,0,1-.44824,1-1v-5c0-.55176-.44873-1-1-1ZM3,11H1v-5h2v5ZM5,11h1v1h-1v-1ZM16,11v1h-4v-1h2v-5h-2v-1h3v6h1Z"/><rect class="cls-1" width="16" height="16"/></svg>

<svg xmlns="http://www.w3.org/2000/svg" viewBox="0 0 16 16"><path d="M10 5H8c-.551 0-1 .448-1 1v5c0 .552.449 1 1 1h2c.551 0 1-.448 1-1V6c0-.552-.449-1-1-1zm0 6H8V6h2v5zM3 5H1c-.551 0-1 .448-1 1v5c0 .552.449 1 1 1h2c.551 0 1-.448 1-1V6c0-.552-.449-1-1-1zm0 6H1V6h2v5zm2 0h1v1H5v-1zm11 0v1h-4v-1h2V6h-2V5h3v6h1z" stroke-width="0"/><path stroke-width="0" fill="none" d="M0 0h16v16H0z"/></svg>
